X: 41880
T: Vlodya's Farewell To Odessa
R: reel
M: 4/4
K: Gminor
DGB|d2e2 d2cB|ed5/ zDGB|d5/e dced|c4 zD^FA|
c2d2 c2BA|dc5/ zD^FA|c5/d cBBA|G4 zDGB|
d2e2 d2cB|ed5/ -d5/z|g5/g -gdgf|e4 -ez ef|
g2g2 g2fe|d5/d -d2cB|AA2B c2Bc|d4 zdef|
g2g2 g2fe|d5/d -dz cB|AA2B c2BA|G4 z3d||
d2cB d2zd-|ddcB d2z2|c2BA c2BA|G4 z3d|
d2cB d2zd-|ddcB d2z2|c2BA c2Bc|d4 zdef|
g2g2 g2fe|dG3 zBcd|e2Be =e2^ce|^f4 z3b|
b2ag b2zb-|bbag b2z2|a2gf a2gf|g4 z3b|
b2ag b2zb-|bbag b2z2|a2gf a2gf|g2z2 G2z2||

